!!!COM: Palestrina, Giovanni Perluigi da
!!!OPR: Missa In te Domine speravi (1599)
!!!OTL: Kyrie II
**kern	**kern	**kern	**kern	**kern	**kern
*Ibass	*Itenor	*Itenor	*Icalto	*Icant	*Icant
!Bassus	!Tenor 2	!Tenor 1	!Altus	!Cantus 2	!Cantus 1
*clefF4	*clefGv2	*clefGv2	*clefG2	*clefG2	*clefG2
*k[]	*k[]	*k[]	*k[]	*k[]	*k[]
*C:ion	*C:ion	*C:ion	*C:ion	*C:ion	*C:ion
*M4/2	*M4/2	*M4/2	*M4/2	*M4/2	*M4/2
=1	=1	=1	=1	=1	=1
0r	1.d	0r	0r	0r	0r
.	2d	.	.	.	.
=2	=2	=2	=2	=2	=2
1.G	2e	0r	0r	0r	0r
.	2d	.	.	.	.
.	4B	.	.	.	.
.	4c	.	.	.	.
2G	4d	.	.	.	.
.	4B	.	.	.	.
=3	=3	=3	=3	=3	=3
2A	2c	0r	2r	0r	0r
2G	2d	.	1g	.	.
4E	1e	.	.	.	.
4F	.	.	.	.	.
4G	.	.	2g	.	.
4E	.	.	.	.	.
=4	=4	=4	=4	=4	=4
2F	2d	0r	2a	0r	0r
2G	2B	.	2g	.	.
1C	1c	.	4e	.	.
.	.	.	4f	.	.
.	.	.	4g	.	.
.	.	.	4e	.	.
=5	=5	=5	=5	=5	=5
0D	2A	0r	2f#	1.dd	0r
.	2B	.	1g	.	.
.	2A	.	.	.	.
.	2d	.	2f#	2dd	.
=6	=6	=6	=6	=6	=6
0r	2c	0r	0g	2ee	2r
.	4B	.	.	2dd	1dd
.	4A	.	.	.	.
.	1G	.	.	4b	.
.	.	.	.	4cc	.
.	.	.	.	4dd	2dd
.	.	.	.	4b	.
=7	=7	=7	=7	=7	=7
0r	2c	2r	0r	2cc	2ee
.	2G	1g	.	2b	2dd
.	1G	.	.	2.dd	4b
.	.	.	.	.	4cc
.	.	2g	.	.	4dd
.	.	.	.	4ee	4b
=8	=8	=8	=8	=8	=8
0r	0r	2a	0r	4ff	2cc
.	.	.	.	4ee	.
.	.	2g	.	2.gg	2b
.	.	4e	.	.	4g
.	.	4f	.	4ff	4a
.	.	4g	.	[2ee	4b
.	.	4e	.	.	4g
=9	=9	=9	=9	=9	=9
0r	1r	2f	0r	2ee]	2a
.	.	2g	.	2dd	2b
.	[1g	2c	.	2ee	2cc
.	.	2c	.	2cc	2ee
=10	=10	=10	=10	=10	=10
0r	2g]	2B	1r	2dd	2dd
.	2g	2c	.	2ee	1cc
.	2a	2F	2r	1dd	.
.	2g	2G	[2g	.	2b
=11	=11	=11	=11	=11	=11
1r	4e	1c	2g]	1cc	0cc
.	4f	.	.	.	.
.	4g	.	2g	.	.
.	4e	.	.	.	.
2r	2f	1r	2a	2r	.
[2c	2e	.	2g	2ee	.
=12	=12	=12	=12	=12	=12
2c]	1g	1r	4e	2ee	2r
.	.	.	4f	.	.
2c	.	.	4g	2ee	2cc
.	.	.	4e	.	.
2d	2f	2r	2f	2dd	2a
2c	4e	2e	2g	[2ee	[2cc
.	4d	.	.	.	.
=13	=13	=13	=13	=13	=13
4A	1c	2e	1a	2ee]	4cc]
4B	.	.	.	.	4dd
4c	.	2e	.	2cc	4ee
4A	.	.	.	.	4cc
2B	1r	2d	1g	2r	2dd
2c	.	2g	.	[2cc	2ee
=14	=14	=14	=14	=14	=14
1d	1r	2.f	0r	2cc]	1ff
.	.	.	.	2b	.
.	.	8e	.	.	.
.	.	8f	.	.	.
2.c	2r	4g	.	2cc	1ee
.	.	4f	.	.	.
.	[2g	4e	.	2g	.
4B	.	4d	.	.	.
=15	=15	=15	=15	=15	=15
1A	2g]	1c	0r	1a	2r
.	2f#	.	.	.	1cc
1G	2g	1r	.	1dd	.
.	2d	.	.	.	2b
=16	=16	=16	=16	=16	=16
0r	2f	0r	2r	2cc	2a
.	2g	.	1g	2b	2dd
.	1d	.	.	1a	2.dd
.	.	.	2f#	.	.
.	.	.	.	.	4cc
=17	=17	=17	=17	=17	=17
0r	1G	1r	2g	1dd	4b
.	.	.	.	.	4a
.	.	.	2d	.	2b
.	1r	2r	2f	2cc	2a
.	.	[2g	2g	2b	2dd
=18	=18	=18	=18	=18	=18
1r	2r	2g]	1d	1a	2.dd
.	2d	2f#	.	.	.
.	.	.	.	.	4cc
2r	1e	2.g	1r	[1g	4b
.	.	.	.	.	4a
[2c	.	.	.	.	2g
.	.	4f	.	.	.
=19	=19	=19	=19	=19	=19
2c]	2c	2e	0r	0g]	2.gg
2B	2d	2d	.	.	.
.	.	.	.	.	4ff
2c	2e	2c	.	.	2ee
2G	[2g	4B	.	.	[2dd
.	.	4A	.	.	.
=20	=20	=20	=20	=20	=20
2B	4g]	2G	1g	0r	2dd]
.	4f	.	.	.	.
2c	2e	2c	.	.	1cc
1G	1d	2d	2g	.	.
.	.	2G	2g	.	2b
=21	=21	=21	=21	=21	=21
2A	2c	1r	2e	0r	[0cc
2F	1f	.	2a	.	.
1c	.	2r	1g	.	.
.	2e	2g	.	.	.
=22	=22	=22	=22	=22	=22
1F	2f	2a	2r	1r	1cc]
.	2c	2a	2cc	.	.
1r	2e	2g	2b	2r	1r
.	2f	2a	[2a	[2cc	.
=23	=23	=23	=23	=23	=23
1r	1d	1f	2a]	2cc]	2r
.	.	.	4g	2b	1ff
.	.	.	4f	.	.
1C	1c	1r	2g	2cc	.
.	.	.	[2g	2g	2ee
=24	=24	=24	=24	=24	=24
2G	1r	2r	4g]	2b	2dd
.	.	.	4f	.	.
4C	.	1c	1e	2cc	2gg
4D	.	.	.	.	.
4E	2r	.	.	[1g	2.gg
4F	.	.	.	.	.
2G	[2G	2B	2d	.	.
.	.	.	.	.	4ff
=25	=25	=25	=25	=25	=25
1C	2G]	2c	2.e	1g]	1ee
.	2.g	2G	.	.	.
.	.	.	4f	.	.
2r	.	2B	1g	1gg	2dd
.	4f	.	.	.	.
[2c	2e	2c	.	.	2cc
=26	=26	=26	=26	=26	=26
2c]	1d	2G	[0g	2.gg	1dd
2B	.	2d	.	.	.
.	.	.	.	4ff	.
2c	2c	2e	.	2ee	1gg
2G	4B	[2g	.	[2dd	.
.	4A	.	.	.	.
=27	=27	=27	=27	=27	=27
2B	2G	4g]	1g]	2dd]	2r
.	.	4f	.	.	.
2c	2g	2e	.	1cc	2cc
2.G	1g	1d	1r	.	1dd
.	.	.	.	2b	.
4F	.	.	.	.	.
=28	=28	=28	=28	=28	=28
2E	2r	0c	2r	[0cc	2ee
2F	1f	.	1a	.	4a
.	.	.	.	.	4b
1C	.	.	.	.	4cc
.	.	.	.	.	4dd
.	2e	.	2g	.	2ee
=29	=29	=29	=29	=29	=29
2r	2f	2r	2a	1cc_	4cc
.	.	.	.	.	4a
2C	2c	2g	2e	.	2.ee
2C	1e	4g	1g	1cc_	.
.	.	4f	.	.	4ff
2C	.	4e	.	.	2gg
.	.	4d	.	.	.
=30	=30	=30	=30	=30	=30
1F	0f	4c	0a	0cc]	2.ff
.	.	4B	.	.	.
.	.	4A	.	.	.
.	.	4G	.	.	4ee
1F	.	2A	.	.	2cc
.	.	2A	.	.	2dd
=31	=31	=31	=31	=31	=31
[0C	[0e	1c	[0g	[0cc	[0ee
.	.	1c	.	.	.
=32	=32	=32	=32	=32	=32
0C]	0e]	0c	0g]	0cc]	0ee]
==	==	==	==	==	==
*-	*-	*-	*-	*-	*-
!!!CDT: 1525/^1526/-1594/2/2
!!!OCY: Italia
!!!AGN: Mass (Parody)
!!!AST: renaissance, vocal
!!!ASW: Motet 1532 (Lupus Hellinck)
!!!PWK: Masses, Book 9
!!!RNB: Cadence finals: G,D
!!!YOR: Le Opere Complete, v. 25, p. 131
!!!YOO: Rome, Italy: Fratelli Scalera
!!!END: 1992//
!!!EED: John Miller
!!!YEC: Copyright 2000, John Miller
!!!YEN: United States of America
!!!YEM: Rights to all derivative electronic formats reserved.
!!!YEM: Refer to licensing agreement for further details.
!!!YEM: This file must be accompanied by the licensing agreement.
!!!YEM: A copy of the licensing agreement may be found at http://www.music-cog.ohio-state.edu/HumdrumDatabases/Palestrina/license.txt
!!!EMD: converted to Humdrum by Bret Aarden
